flaticon/gastronomy/ice-cream-6.svg

<svg xmlns="http://www.w3.org/2000/svg" width="32" height="32" viewBox="0 0 24 24">
    <path d="M 12.226562 0 L 11.773438 0 C 8.546875 0 5.921875 2.625 5.921875 5.851562 L 5.921875 17.824219 C 5.921875 18.945312 6.835938 19.859375 7.960938 19.859375 L 10.460938 19.859375 L 10.460938 22.757812 C 10.460938 23.445312 11.019531 24 11.703125 24 L 12.117188 24 C 12.800781 24 13.359375 23.445312 13.359375 22.757812 L 13.359375 19.859375 L 16.039062 19.859375 C 17.164062 19.859375 18.078125 18.945312 18.078125 17.820312 L 18.078125 5.851562 C 18.078125 2.625 15.453125 0 12.226562 0 Z M 12.53125 22.757812 C 12.53125 22.988281 12.347656 23.171875 12.117188 23.171875 L 11.703125 23.171875 C 11.476562 23.171875 11.289062 22.988281 11.289062 22.757812 L 11.289062 19.863281 L 12.53125 19.863281 Z M 17.25 17.820312 C 17.25 18.488281 16.707031 19.03125 16.039062 19.03125 L 7.960938 19.03125 C 7.292969 19.03125 6.75 18.488281 6.75 17.820312 L 6.75 5.851562 C 6.75 3.082031 9.003906 0.828125 11.773438 0.828125 L 12.226562 0.828125 C 14.996094 0.828125 17.25 3.082031 17.25 5.851562 Z M 17.25 17.820312"/>
    <path d="M15.433594 8.816406C15.203125 8.816406 15.019531 9 15.019531 9.230469L15.019531 11.269531C15.019531 11.667969 14.695312 11.992188 14.300781 11.992188 13.902344 11.992188 13.578125 11.667969 13.578125 11.269531L13.578125 9.230469C13.578125 9 13.394531 8.816406 13.164062 8.816406 12.9375 8.816406 12.753906 9 12.753906 9.230469L12.753906 11.269531C12.753906 12.125 13.445312 12.816406 14.300781 12.816406 15.152344 12.816406 15.847656 12.125 15.847656 11.269531L15.847656 9.230469C15.847656 9 15.660156 8.816406 15.433594 8.816406zM11.496094 14.503906C11.265625 14.503906 11.082031 14.691406 11.082031 14.917969L11.082031 16.050781C11.082031 16.449219 10.757812 16.773438 10.359375 16.773438 9.964844 16.773438 9.640625 16.449219 9.640625 16.050781L9.640625 14.917969C9.640625 14.691406 9.457031 14.503906 9.226562 14.503906 9 14.503906 8.8125 14.691406 8.8125 14.917969L8.8125 16.050781C8.8125 16.90625 9.507812 17.601562 10.359375 17.601562 11.214844 17.601562 11.910156 16.90625 11.910156 16.050781L11.910156 14.917969C11.910156 14.691406 11.722656 14.503906 11.496094 14.503906zM10.1875 8.265625C11.039062 8.265625 11.734375 7.574219 11.734375 6.71875L11.734375 5.585938C11.734375 5.355469 11.546875 5.171875 11.320312 5.171875 11.089844 5.171875 10.90625 5.355469 10.90625 5.585938L10.90625 6.71875C10.90625 7.117188 10.582031 7.4375 10.1875 7.4375 9.789062 7.4375 9.464844 7.117188 9.464844 6.71875L9.464844 5.585938C9.464844 5.355469 9.28125 5.171875 9.050781 5.171875 8.824219 5.171875 8.636719 5.355469 8.636719 5.585938L8.636719 6.71875C8.636719 7.574219 9.332031 8.265625 10.1875 8.265625zM10.1875 8.265625"/>
</svg>

<svg xmlns="http://www.w3.org/2000/svg" width="32" height="32" viewBox="0 0 24 24">
    <path d="M12.227 0h-.454a5.858 5.858 0 0 0-5.851 5.852v11.972A2.04 2.04 0 0 0 7.96 19.86h2.5v2.899c0 .687.559 1.242 1.242 1.242h.414c.684 0 1.242-.555 1.242-1.242v-2.899h2.68a2.04 2.04 0 0 0 2.04-2.039V5.852A5.858 5.858 0 0 0 12.226 0zm.304 22.758c0 .23-.183.414-.414.414h-.414a.414.414 0 0 1-.414-.414v-2.895h1.242zm4.719-4.938c0 .668-.543 1.211-1.21 1.211H7.96c-.667 0-1.21-.543-1.21-1.21V5.85A5.03 5.03 0 0 1 11.773.829h.454a5.03 5.03 0 0 1 5.023 5.024zm0 0"/>
    <path d="M15.434 8.816a.412.412 0 0 0-.414.414v2.04a.723.723 0 0 1-.72.722.724.724 0 0 1-.722-.722V9.23a.412.412 0 1 0-.824 0v2.04a1.548 1.548 0 0 0 3.094 0V9.23a.414.414 0 0 0-.414-.414zm0 0M11.496 14.504a.414.414 0 0 0-.414.414v1.133a.724.724 0 0 1-.723.722.723.723 0 0 1-.718-.722v-1.133a.414.414 0 0 0-.829 0v1.133c0 .855.696 1.55 1.547 1.55.856 0 1.551-.695 1.551-1.55v-1.133a.417.417 0 0 0-.414-.414zm0 0M10.188 8.266c.851 0 1.546-.692 1.546-1.547V5.586a.414.414 0 0 0-.828 0v1.133a.72.72 0 1 1-1.441 0V5.586a.414.414 0 0 0-.828 0v1.133c0 .855.695 1.547 1.55 1.547zm0 0"/>
</svg>
